Numix/128x128/categories/applications-roleplaying.svg

<?xml version="1.0" encoding="UTF-8" standalone="no"?>
<svg
   xmlns:dc="http://purl.org/dc/elements/1.1/"
   xmlns:cc="http://creativecommons.org/ns#"
   xmlns:rdf="http://www.w3.org/1999/02/22-rdf-syntax-ns#"
   xmlns:svg="http://www.w3.org/2000/svg"
   xmlns="http://www.w3.org/2000/svg"
   xmlns:sodipodi="http://sodipodi.sourceforge.net/DTD/sodipodi-0.dtd"
   xmlns:inkscape="http://www.inkscape.org/namespaces/inkscape"
   width="128"
   height="128"
   viewBox="0 0 128 128"
   id="svg2"
   version="1.1"
   inkscape:version="0.91 r"
   sodipodi:docname="applications-roleplaying.svg">
  <metadata
     id="metadata24">
    <rdf:RDF>
      <cc:Work
         rdf:about="">
        <dc:format>image/svg+xml</dc:format>
        <dc:type
           rdf:resource="http://purl.org/dc/dcmitype/StillImage" />
      </cc:Work>
    </rdf:RDF>
  </metadata>
  <defs
     id="defs22" />
  <sodipodi:namedview
     pagecolor="#ffffff"
     bordercolor="#666666"
     borderopacity="1"
     objecttolerance="10"
     gridtolerance="10"
     guidetolerance="10"
     inkscape:pageopacity="0"
     inkscape:pageshadow="2"
     inkscape:window-width="961"
     inkscape:window-height="480"
     id="namedview20"
     showgrid="false"
     inkscape:zoom="1.84375"
     inkscape:cx="64"
     inkscape:cy="64"
     inkscape:window-x="10"
     inkscape:window-y="34"
     inkscape:window-maximized="0"
     inkscape:current-layer="svg2" />
  <g
     style="fill:#549ca4;stroke:#549ca4;stroke-width:4.54500008"
     id="g4"
     transform="translate(0.66601563,0.66601563)">
    <path
       d="m 69.15673,106.23768 c 1.634183,7.55514 2.549957,13.23925 1.207874,20.7865 -10.286668,8.36828 -36.599383,12.134 -36.552016,20.79438 l -3.552571,25.97325 c 0,8.60512 24.552218,15.57605 54.820129,15.57605 30.260014,0 54.788554,-6.97093 54.788554,-15.57605 l -3.52889,-25.97325 c -0.0474,-7.42093 -26.52587,-12.134 -36.678331,-20.79438 -0.868406,-6.99462 -0.18947,-13.78398 1.310501,-20.7865 z"
       transform="scale(0.4948,0.4948)"
       id="path6"
       inkscape:connector-curvature="0" />
    <path
       d="m 84.819624,57.551662 c -12.560315,0 -22.744354,9.789309 -22.744354,21.844369 0.110525,4.476241 0.473677,9.789309 3.055212,21.868049 1.499975,4.6815 15.031326,18.10233 15.133956,19.65757 2.944687,1.55523 7.578819,1.55523 10.602453,0 0,-1.55524 12.134009,-14.97607 13.657669,-19.65757 2.87363,-12.552416 2.87363,-17.15497 3.03152,-21.868049 0,-12.05506 -10.184036,-21.844369 -22.736456,-21.844369 z"
       transform="scale(0.4948,0.4948)"
       id="path8"
       inkscape:connector-curvature="0" />
    <g
       style="stroke-linejoin:round"
       id="g10">
      <path
         d="M 132.73987,71.185643 C 125.0821,66.630457 112.63231,34.949411 114.5507,48.449184 l 4.55519,31.815254 z"
         transform="scale(0.4948,0.4948)"
         id="path12"
         inkscape:connector-curvature="0" />
      <path
         d="m 177.99963,71.185643 c 7.68145,-4.555186 20.10756,-36.236232 18.18128,-22.736459 l -4.5473,31.815254 z"
         transform="scale(0.4948,0.4948)"
         id="path14"
         inkscape:connector-curvature="0" />
    </g>
    <path
       d="m 134.81615,107.55608 c 2.10786,9.89194 3.26047,17.36813 1.55524,27.26007 -13.21557,10.9735 -47.051842,15.92342 -47.004474,27.26007 l -4.547292,34.10469 c 0,11.28928 31.546836,20.44702 70.443546,20.44702 38.9204,0 70.47513,-9.15774 70.47513,-20.44702 l -4.55518,-34.10469 c -0.0553,-9.71037 -34.10469,-15.89184 -47.15447,-27.26007 -1.13683,-9.18142 -0.23684,-18.07864 1.70523,-27.26007 z"
       transform="scale(0.4948,0.4948)"
       id="path16"
       inkscape:connector-curvature="0" />
    <path
       d="m 155.26317,39.37039 c -18.81284,0 -34.081,14.23397 -34.081,31.815253 0.15789,6.497259 0.71051,14.233971 4.55519,31.815257 2.26575,6.81304 22.5233,25.00221 22.71277,27.26006 4.42098,2.28944 11.36823,2.28944 15.91552,0 0,-2.25785 18.18917,-20.44702 20.44703,-27.26006 4.31834,-18.2918 4.31834,-25.002214 4.55518,-31.815257 0,-17.581283 -15.26027,-31.815253 -34.10469,-31.815253 z"
       transform="scale(0.4948,0.4948)"
       id="path18"
       inkscape:connector-curvature="0" />
  </g>
</svg>

<svg width="128" xmlns="http://www.w3.org/2000/svg" height="128" viewBox="0 0 128 128" xmlns:xlink="http://www.w3.org/1999/xlink">
<g style="stroke:#549ca4;stroke-width:4.545;fill:#549ca4">
<path d="M 69.15673 106.237684 C 70.790913 113.79282 71.706687 119.476935 70.364604 127.024176 C 60.077936 135.392457 33.765221 139.158183 33.812588 147.818563 L 30.260017 173.79181 C 30.260017 182.396928 54.812235 189.367863 85.080146 189.367863 C 115.340163 189.367863 139.868697 182.396928 139.868697 173.79181 L 136.339809 147.818563 C 136.292441 140.397635 109.81394 135.684557 99.661479 127.024176 C 98.793073 120.029557 99.472009 113.240198 100.971984 106.237684 Z " transform="scale(.4948)"/>
<path d="M 84.819624 57.551662 C 72.259309 57.551662 62.07527 67.340971 62.07527 79.396031 C 62.185795 83.872272 62.548947 89.18534 65.130482 101.264084 C 66.630457 105.945584 80.161808 119.366411 80.264438 120.921648 C 83.209125 122.476885 87.843257 122.476885 90.866891 120.921648 C 90.866891 119.366411 103.000897 105.945584 104.524555 101.264084 C 107.398191 88.711664 107.398191 84.10911 107.556083 79.396031 C 107.556083 67.340971 97.372044 57.551662 84.819624 57.551662 Z " transform="scale(.4948)"/>
<g style="stroke-linejoin:round">
<path d="M 132.73987 71.185643 C 125.082104 66.630457 112.632314 34.949411 114.550702 48.449184 L 119.105889 80.264438 Z " transform="scale(.4948)"/>
<path d="M 177.999634 71.185643 C 185.681083 66.630457 198.10719 34.949411 196.180906 48.449184 L 191.633615 80.264438 Z " transform="scale(.4948)"/>
</g>
<path d="M 134.81615 107.556083 C 136.92401 117.448022 138.076622 124.924212 136.371387 134.81615 C 123.155821 145.78965 89.319548 150.739566 89.366916 162.076218 L 84.819624 196.180906 C 84.819624 207.47019 116.366461 216.62793 155.263175 216.62793 C 194.183572 216.62793 225.738303 207.47019 225.738303 196.180906 L 221.183117 162.076218 C 221.127855 152.365855 187.078428 146.18438 174.028648 134.81615 C 172.891825 125.634726 173.79181 116.737508 175.733882 107.556083 Z " transform="scale(.4948)"/>
<path d="M 155.263175 39.37039 C 136.450333 39.37039 121.18217 53.60436 121.18217 71.185643 C 121.340062 77.682902 121.892684 85.419614 125.737356 103.000897 C 128.003107 109.81394 148.260661 128.003107 148.450131 130.260964 C 152.87111 132.550399 159.818361 132.550399 164.365653 130.260964 C 164.365653 128.003107 182.55482 109.81394 184.812677 103.000897 C 189.131025 84.7091 189.131025 77.998686 189.367863 71.185643 C 189.367863 53.60436 174.107594 39.37039 155.263175 39.37039 Z " transform="scale(.4948)"/>
</g>
</svg>
